static/img/icon/bug-icon.svg

<svg width="20" height="20" viewBox="0 0 20 20" fill="none" xmlns="http://www.w3.org/2000/svg">
<g clip-path="url(#clip0)">
<path d="M20 11.2852C19.9813 11.966 19.4056 12.5 18.7245 12.5H16.563V13.125C16.563 13.9791 16.3723 14.7884 16.0317 15.5135L18.3844 17.8661C18.8725 18.3543 18.8725 19.1457 18.3844 19.6339C17.8962 20.1221 17.1047 20.122 16.6166 19.6339L14.4784 17.4958C13.5116 18.2799 12.2798 18.75 10.938 18.75V9.21875C10.938 8.95988 10.7281 8.75 10.4692 8.75H9.53171C9.27285 8.75 9.06296 8.95988 9.06296 9.21875V18.75C7.72113 18.75 6.48929 18.2799 5.5225 17.4958L3.38437 19.6339C2.89617 20.1221 2.10472 20.122 1.61656 19.6339C1.12843 19.1457 1.12843 18.3543 1.61656 17.8661L3.96921 15.5135C3.62867 14.7884 3.43796 13.9791 3.43796 13.125V12.5H1.27648C0.595387 12.5 0.0196444 11.966 0.000972501 11.2852C-0.0184416 10.5787 0.548433 10 1.25046 10H3.43796V7.70527L1.61656 5.88387C1.12843 5.3957 1.12843 4.60426 1.61656 4.11609C2.10476 3.62793 2.89617 3.62793 3.38437 4.11609L5.51824 6.25H14.4827L16.6165 4.11613C17.1047 3.62797 17.8961 3.62797 18.3843 4.11613C18.8725 4.6043 18.8725 5.39574 18.3843 5.88391L16.563 7.70527V10H18.7505C19.4525 10 20.0194 10.5787 20 11.2852ZM10.0395 0C7.62328 0 5.66453 1.95875 5.66453 4.375H14.4145C14.4145 1.95875 12.4558 0 10.0395 0Z" fill="#569CD6"/>
</g>
<defs>
<clipPath id="clip0">
<rect width="20" height="20" fill="white"/>
</clipPath>
</defs>
</svg>

<svg xmlns="http://www.w3.org/2000/svg" width="20" height="20" fill="none" viewBox="0 0 20 20"><g clip-path="url(#a)"><path fill="#569cd6" d="M20 11.285c-.019.681-.594 1.215-1.276 1.215h-2.161v.625c0 .854-.19 1.663-.531 2.389l2.352 2.352a1.25 1.25 0 0 1-1.767 1.768l-2.139-2.138a5.6 5.6 0 0 1-3.54 1.254V9.219a.47.47 0 0 0-.469-.469h-.937a.47.47 0 0 0-.469.469v9.531a5.6 5.6 0 0 1-3.54-1.254l-2.139 2.138a1.25 1.25 0 0 1-1.767-1.768l2.352-2.352a5.6 5.6 0 0 1-.531-2.389V12.5H1.276c-.68 0-1.256-.534-1.275-1.215A1.25 1.25 0 0 1 1.251 10h2.187V7.705L1.617 5.884a1.25 1.25 0 0 1 1.767-1.768L5.518 6.25h8.965l2.133-2.134a1.25 1.25 0 0 1 1.768 1.768l-1.821 1.821V10h2.188A1.25 1.25 0 0 1 20 11.285M10.04 0a4.375 4.375 0 0 0-4.375 4.375h8.75A4.375 4.375 0 0 0 10.04 0"/></g><defs><clipPath id="a"><path fill="#fff" d="M0 0h20v20H0z"/></clipPath></defs></svg>
